astro/public/img/icons/auth-bottleneck-architecture.svg

<svg height="70" viewBox="0 0 70 70" width="70" xmlns="http://www.w3.org/2000/svg" xmlns:xlink="http://www.w3.org/1999/xlink"><linearGradient id="a" x1="38.738868%" x2="61.261132%" y1="0%" y2="100%"><stop offset="0" stop-color="#a4aebe"/><stop offset="1" stop-color="#2d53f5"/></linearGradient><path d="m22.9093223 10.390413v-6.54258691c0-2.12143479-1.713013-3.84782609-3.8243716-3.84782609-.1730831 0-10.17499206 0-10.17499206 0s0 0-.00127267 0c-2.10372256 0-3.8167356 1.7251087-3.81800827 3.84654348v6.54386952c-2.90041362.5964131-5.0906777 3.1872827-5.0906777 6.2835v35.9130435c.00127267 3.5361522 2.85587019 6.4130435 6.36461979 6.4130435h15.27203311c3.5087496 0 6.3633471-2.8768913 6.3633471-6.4130435v-35.9130435c0-3.0962173-2.1902641-5.6870869-5.0906777-6.2835zm-15.27203309-6.54258691c0-.70671739.57015591-1.2826087 1.27266943-1.2826087h5.09067766c2.6420618 0 4.1870824 0 5.0906777-.09234782v.09234782c.7025136 0 1.2726695.57589131 1.2726695 1.2826087v6.41304351h-12.72669429zm17.81737199 48.73913041c0 2.1214348-1.7130131 3.8478261-3.8180083 3.8478261h-15.27203311c-2.10499523 0-3.81800827-1.7263913-3.81800827-3.8478261v-21.8043478h22.90804968zm0-24.3695652h-22.90804968v-5.1304348h22.90804968zm0-7.6956522h-22.90804968v-3.8478261c0-2.1214347 1.71301304-3.847826 3.81800827-3.847826h15.27203311c2.1049952 0 3.8180083 1.7263913 3.8180083 3.847826z" fill="url(#a)" stroke="url(#a)" stroke-width=".9" transform="translate(21 6)"/></svg>

<svg xmlns="http://www.w3.org/2000/svg" width="70" height="70"><linearGradient id="a" x1="38.739%" x2="61.261%" y1="0%" y2="100%"><stop offset="0" stop-color="#a4aebe"/><stop offset="1" stop-color="#2d53f5"/></linearGradient><path fill="url(#a)" stroke="url(#a)" stroke-width=".9" d="M22.91 10.39V3.848C22.91 1.726 21.195 0 19.084 0H8.909C6.805 0 5.092 1.725 5.09 3.847v6.543C2.19 10.987 0 13.578 0 16.674v35.913C.001 56.123 2.856 59 6.365 59h15.272C25.145 59 28 56.123 28 52.587V16.674c0-3.096-2.19-5.687-5.09-6.284zM7.636 3.848c0-.707.57-1.283 1.273-1.283H14c2.643 0 4.188 0 5.091-.092v.092a1.28 1.28 0 0 1 1.273 1.283v6.413H7.637zm17.818 48.739c0 2.121-1.713 3.848-3.818 3.848H6.365c-2.105 0-3.818-1.727-3.818-3.848V30.783h22.908zm0-24.37H2.547v-5.13h22.908zm0-7.695H2.547v-3.848c0-2.122 1.713-3.848 3.818-3.848h15.272c2.105 0 3.818 1.726 3.818 3.848z" transform="translate(21 6)"/></svg>
